!!!!SEGMENT: pl-wnifc--3119-n--001_szymanowska-maria--duoze-exercices-no-1-vivace.krn
!!!cenid: 18xx:3833
!!!COM: Szymanowska, Maria
!!!COM-rismID: pe140138
!!!CDT: 1789/12/14-1831/07/25
!!!CNT: Polish
!!!GTL: Duoze Exercices
!!!OTL: No. 1. Vivace
!!!PDT: 1825
!!!AGN:
!!!SMS-siglum: PL-Wnifc
!!!SMS-shelfmark: 3119/n
!!!SMS-shelfwork: 001 G
!!!SMS-variant:
!!!SMS-altvar:
!!!NIFC-rismSourceID: 1001142147
!!!NIFC-rismChildID: 1001142148
!!!NIFC-islandoraID: nifc:212170
!!!URL-pdf-islandora: https://repozytorium.nifc.pl/islandora/object/nifc%3A212170/datastream/PDF/view
!!!URL-scan: https://polish.musicsources.pl/pl/lokalizacje/galeria/druki-muzyczne/16830 @EN{Scan on Polish Music Sources Website} @PL{Skany w portalu Dziedzictwo Muzyki Polskiej w otwartym dostępie}
!!!ONB-nifc:
!!!AIN: 2 piano
!!!key: F
!!!OMD:
!!!OMD-mod: Vivace
!!!filter-modern: sic -sq | shed -k -e "s/LO:N:vis/LO:n:vis:/L" | shed -e "s/TX(.*):t=P:/tx$1:t=P:/LG" | shed -e "s/:rj/:RJ/L" | shed -k -e "s/([^a-gA-Gn#X-])[<>]/$1/g" | shed -e "s/LO:DY:(a|b|rj)/LO:dy:$1/L" | shed -e "s/-//B" | autostem -r | modori -m
**kern	**fing	**kern	**fing	**dynam
*part2	*part 2	*part1	*part 1	*part1
*staff2	*	*staff1	*	*
*I"Pianoforte	*	*I"Pianoforte	*	*
*I'	*	*I'	*	*
*Ipiano	*	*Ipiano	*	*
*ICklav	*	*ICklav	*	*
*IGsolo	*	*IGsolo	*	*
*mI'pf	*	*mI'pf	*	*
*clefF4	*	*clefG2	*	*
*k[b-]	*	*k[b-]	*	*
*F:	*	*F:	*	*
*M6/8	*	*M6/8	*	*
*	*	*8va	*	*
*>[A,A,B,B]	*	*>[A,A,B,B]	*	*
*>A	*	*>A	*	*
!	!	!LO:TX:b:B:t=No. 1.:mod=	!	!
!	!	!LO:TX:a:Bi:t=Vivace:mod=	!	!
8r	.	8ccc\	.	f
=1	=1	=1	=1	=1
[2.FF:/ [>2.C: [2.A:	.	16cccc^<\LL	5	.
.	.	16aaa\	4	.
.	.	16fff\	2	.
.	.	16ccc\	1	.
.	.	16bbb-\	5	.
.	.	16ggg\JJ	4	.
.	.	16aaa^<\LL	.	.
.	.	16fff\	.	.
.	.	16ccc\	.	.
.	.	16aa\	.	.
.	.	16ddd\	.	.
.	.	16bb-\JJ	.	.
*	*	*X8va	*	*
=2	=2	=2	=2	=2
!	!	!LO:TX:a:i:t=loco	!	!
2.FF/] 2.C] 2.A]	.	16ccc\LL	.	.
.	.	16aa\	.	.
.	.	16ff\	.	.
.	.	16cc\	.	.
.	.	16bb-\	.	.
.	.	16gg\JJ	.	.
.	.	16aa\LL	.	.
.	.	16ff\	.	.
.	.	16cc\	.	.
.	.	16a\	.	.
.	.	16dd\	.	.
.	.	16b-\JJ	.	.
=3	=3	=3	=3	=3
4FF:/ 4C: 4A:	.	16cc^/LL	5	.
.	.	16a/	4	.
.	.	16f/	2	.
.	.	16c/	1	.
8r	.	16dd/	5	.
.	.	16cc/JJ	4	.
4EE:/ 4C: 4G:	.	16cc^/LL	4	.
.	.	16b-/	3	.
.	.	16g/	2	.
.	.	16c/	1	.
8r	.	16dd/	5	.
.	.	16cc/JJ	4	.
=4	=4	=4	=4	=4
4FF:/ 4C: 4A:	.	16cc^/LL	5	.
.	.	16a/	4	.
.	.	16f/	2	.
.	.	16c/	1	.
8r	.	16dd/	5	.
.	.	16cc/JJ	4	.
4CC:/ 4GG: 4E:	.	16cc/LL	4	.
.	.	16b-/	3	.
.	.	16g/	2	.
.	.	16e/	1	.
.	.	8qd/	.	.
8r	.	16c/	3	.
.	.	16B-^/JJ	2	.
=5	=5	=5	=5	=5
*	*	*8va	*	*
[2.FF:/ [>2.C: [2.A:	.	16cccc\LL	.	f
.	.	16aaa\	.	.
.	.	16fff\	.	.
.	.	16ccc\	.	.
.	.	16bbb-\	.	.
.	.	16ggg\JJ	.	.
.	.	16aaa\LL	.	.
.	.	16fff\	.	.
.	.	16ccc\	.	.
.	.	16aa\	.	.
.	.	16ddd\	.	.
.	.	16bb-\JJ	.	.
*	*	*X8va	*	*
=6	=6	=6	=6	=6
!	!	!LO:TX:a:i:t=loco	!	!
2.FF/] 2.C] 2.A]	.	16ccc\LL	.	.
.	.	16aa\	.	.
.	.	16ff\	.	.
.	.	16cc\	.	.
.	.	16bb-\	.	.
.	.	16gg\JJ	.	.
.	.	16aa\LL	.	.
.	.	16ff\	.	.
.	.	16cc\	.	.
.	.	16a\	.	.
.	.	16dd\	.	.
.	.	16b-\JJ	.	.
!!LO:LB:g=original
=7	=7	=7	=7	=7
4FF/ 4C 4A:	.	16cc/LL	.	.
.	.	16a/	.	.
.	.	16f/	.	.
.	.	16c/	.	.
8r	.	16dd/	.	.
.	.	16cc/JJ	.	.
!LO:SIC:s=4EE 4C 4G:	!	!	!	!
4EE/ 4C 4G	.	16cc/LL	.	.
.	.	16b-/	.	.
.	.	16g/	.	.
.	.	16c/	.	.
8r	.	16dd/	.	.
.	.	16cc/JJ	.	.
=	=	=	=	=
.	.	8qf/	.	f
!LO:SIC:s=4FF/ 4C 4A:	!	!	!	!
4FF/ 4C 4A	.	16ff/LL	.	.
.	.	16cc/	.	.
.	.	16a/	.	.
.	.	16f/	.	.
8r	.	16c/	.	.
.	.	16A/JJ	.	.
4FFF\ 4FF	.	4F</	.	.
=8:|!|:	=8:|!|:	=8:|!|:	=8:|!|:	=8:|!|:
*>B	*	*>B	*	*
*	*	*8va	*	*
8r	.	8aaa\	.	p
=9	=9	=9	=9	=9
8qqAA/	.	.	.	.
2.A\	.	16bbb-\LL	5	.
.	.	16ggg\	3	.
.	.	16eee\	2	.
.	.	16ccc#X\	1	.
.	.	16aaa\	5	.
.	.	16fff\JJ	3	.
.	.	16ggg^<\LL	.	.
.	.	16eee\	.	.
.	.	16ccc#X\	.	.
.	.	16aa\	.	.
.	.	16fff\	.	.
.	.	16ddd\JJ	.	.
*	*	*X8va	*	*
=10	=10	=10	=10	=10
!	!	!LO:TX:a:i:t=loco	!	!
8qqAA/	.	.	.	.
2.A\	.	16eee\LL	.	.
.	.	16ccc#X\	.	.
.	.	16bb-\	.	.
.	.	16gg\	.	.
.	.	16ddd\	5	.
.	.	16aa\JJ	2	.
.	.	16bb-\LL	3	.
.	.	16gg\	2	.
.	.	16ee\	1	.
.	.	16cc#X\	2	.
.	.	16aa\	5	.
.	.	16ff\JJ	3	.
=11	=11	=11	=11	=11
8qqAA/	.	.	.	.
2.A\	.	16gg\LL	.	.
.	.	16ee\	.	.
.	.	16cc#X\	.	.
.	.	16a\	.	.
.	.	16ff\	.	.
.	.	16dd\JJ	.	.
.	.	16ee\LL	.	.
.	.	16cc#X\	.	.
.	.	16b-\	.	.
.	.	16g\	.	.
.	.	16dd\	5	.
.	.	16a\JJ	2	.
=12	=12	=12	=12	=12
8qqAA/	.	.	.	.
*	*	*	*below	*
2.A\	.	16b-/LL	3	.
.	.	16g/	2	.
.	.	16e/	1	.
.	.	16c#X/	2	.
.	.	16g#X/	5	.
.	.	16d/JJ	1	.
.	.	16c#X/ 16a	5 2	.
*	*	*	*above	*
.	.	16a\LL	1	.
.	.	16cc#X\	2	.
.	.	16ee\	3	.
.	.	16aa\	5	.
.	.	16ccc#X\JJ	1	.
=13	=13	=13	=13	=13
8qqAA/	.	.	.	.
*	*	*8va	*	*
4.A\	.	16bbb-\LL	5	sf
.	.	16ggg\	.	.
.	.	16eee\	.	.
.	.	16ccc#X\	.	.
.	.	16aaa\	.	.
.	.	16fff\JJ	.	.
8qqAA/	.	.	.	.
4.A\	.	16ggg\LL	.	sf
.	.	16eee\	.	.
.	.	16ccc#X\	.	.
.	.	16aa\	.	.
.	.	16fff\	.	.
.	.	16ddd\JJ	.	.
*	*	*X8va	*	*
!!LO:LB:g=original
=14	=14	=14	=14	=14
!	!	!LO:TX:a:i:t=loco	!	!
8qqAA/	.	.	.	.
4.A\	.	16eee\LL	.	sf
.	.	16ccc#X\	.	.
.	.	16bb-\	.	.
.	.	16gg\	.	.
.	.	16ddd\	.	.
.	.	16aa\JJ	.	.
8qqAA/	.	.	.	.
4.A\	.	16bb-\LL	.	sf
.	.	16gg\	.	.
.	.	16ee\	.	.
.	.	16cc#X\	.	.
.	.	16aa\	.	.
.	.	16ff\JJ	.	.
=15	=15	=15	=15	=15
8qqAA/	.	.	.	.
4.A\	.	16gg\LL	.	.
.	.	16ee\	.	.
.	.	16cc#X\	.	.
.	.	16a\	.	.
.	.	16ff\	.	.
.	.	16dd\JJ	.	.
8qqAA/	.	.	.	.
4.A\	.	16ee\LL	.	.
.	.	16cc#X\	.	.
.	.	16b-\	.	.
.	.	16g\	.	.
.	.	16dd\	.	.
.	.	16a\JJ	.	.
=16	=16	=16	=16	=16
8qqAA/	.	.	.	.
4.A\	.	16b-/LL	4	.
.	.	16g/	2	.
.	.	16e/	1	.
.	.	16c#X/	2	.
.	.	16g#X/	5	.
.	.	16d/JJ	1	.
8A`\L	.	4c#X/ 4a	2 5	.
8E`\	.	.	.	.
8C#X`\J	.	8r	.	.
=17	=17	=17	=17	=17
4.AA/	.	(16A/LL	.	f
.	.	16c#X/	.	.
.	.	16e/	.	.
.	.	16a/	.	.
.	.	16cc#X/	.	.
.	.	16ee/JJ)	.	.
8A\L	1	8aa\L	.	.
.	.	8qqgg#X/	.	.
8c#X\	2	8aa\	.	.
8A\J	1	8a\J 8aa	.	.
=18	=18	=18	=18	=18
*	*below	*	*	*
4.AA/	5	(16A/LL	.	.
.	.	16d/	.	.
.	.	16f/	.	.
.	.	16a/	.	.
.	.	16dd/	.	.
.	.	16ff/JJ)	.	.
*	*above	*	*	*
8A\L	1	8aa\L	.	.
.	.	8qqgg#X/	.	.
8d\	2	8aa\	.	.
8A\J	1	8a\J 8aa	.	.
=19	=19	=19	=19	=19
4.AA/	.	16a\LL	.	p
.	.	16cc#X\	.	.
.	.	16ee\	.	.
.	.	16aa\	.	.
.	.	16ccc#X\	.	.
.	.	16eee\JJ	.	.
*	*	*8va	*	*
8A`\L	.	16ggg#X\LL	.	.
.	.	16aaa\	.	.
8c#X`\	.	16aa\	.	.
.	.	16aaa\	.	.
8A`\J	.	16ggg#\	.	.
.	.	16aaa\JJ	.	.
*	*	*X8va	*	*
=20	=20	=20	=20	=20
!	!	!LO:TX:a:i:t=loco	!	!
4.AA/	.	16a\LL	.	.
.	.	16dd\	.	.
.	.	16ff\	.	.
.	.	16aa\	.	.
.	.	16ddd\	.	.
.	.	16fff\JJ	.	.
*	*	*8va	*	*
8A`\L	.	16ggg#X\LL	.	.
.	.	16aaa\	.	.
8d`\	.	16aa\	.	.
.	.	16aaa\	.	.
8A`\J	.	16ggg#\	.	.
.	.	16aaa\JJ	.	.
!!LO:LB:g=original
=21	=21	=21	=21	=21
8AA\ 8A	.	8aa\ 8ccc#X 8eee 8aaa	.	f
*	*	*X8va	*	*
(16AA\LL	.	4r	.	.
16C#X\	.	.	.	.
16E\	.	.	.	.
16A\JJ	.	.	.	.
8A\)	.	8r	.	.
!	!	!LO:TX:a:i:t=loco	!	!
8r	.	(16A/LL	.	.
.	.	16c#X/	.	.
8r	.	16e/	.	.
.	.	16a/JJ)	.	.
*clefG2	*	*	*	*
=22	=22	=22	=22	=22
8r	.	8a/	.	.
!	!	!LO:TX:b:t=di_mi_nu_en_do:problem:dynamics with line extensions:mod=	!	!LO:HP:b:t=di-mi-nu-en-do:ext=cd
(16A/LL	.	8r	.	>
16cn/	.	.	.	.
16e/	.	8r	.	.
16a/JJ	.	.	.	.
8a/)	.	8r	.	.
8r	.	(16a\LL	.	.
.	.	16cc\	.	.
8r	.	16ee\	.	.
.	.	16aa\JJ	.	.
=23	=23	=23	=23	=23
8r	.	8aa\)	.	.
16a\LL	.	4r	.	.
16cc\	.	.	.	.
16ee\	.	.	.	.
16aa\JJ	.	.	.	.
*	*	*8va	*	*
(8ccc`\L	.	8ccc\L 8cccc	.	]
8bbn`\	.	8ddd\ 8cccc	.	.
8bb-X`\J)	.	8eee\J 8cccc	.	.
=24	=24	=24	=24	=24
4aa\	.	16fff\LL 16cccc	.	f
.	.	16aaa\	.	.
.	.	16fff\	.	.
.	.	16ccc\	.	.
8r	.	16bbb-\	.	.
.	.	16ggg\JJ	.	.
4r	.	16aaa\LL	.	.
.	.	16fff\	.	.
.	.	16ccc\	.	.
.	.	16aa\	.	.
8r	.	16ddd\	.	.
.	.	16bb-\JJ	.	.
*	*	*X8va	*	*
=25	=25	=25	=25	=25
!	!	!LO:TX:a:i:t=loco	!	!
2.r	.	16ff\LL 16ccc	.	f
.	.	16aa\	.	.
.	.	16ff\	.	.
.	.	16cc\	.	.
.	.	16bb-\	.	.
.	.	16gg\JJ	.	.
.	.	16aa\LL	.	.
.	.	16ff\	.	.
.	.	16cc\	.	.
.	.	16a\	.	.
.	.	16dd\	.	.
.	.	16b-\JJ	.	.
*clefF4	*	*	*	*
=26	=26	=26	=26	=26
4FF:/ 4C: 4A:	.	16cc/LL	.	.
.	.	16a/	.	.
.	.	16f/	.	.
.	.	16c^>/	.	.
8r	.	16dd/	.	.
.	.	16cc/JJ	.	.
!LO:SIC:s=4EE 4C 4G:	!	!	!	!
4EE/ 4C 4G	.	16cc/LL	.	.
.	.	16b-/	.	.
.	.	16g/	.	.
.	.	16c^>/	.	.
8r	.	16dd/	.	.
.	.	16cc/JJ	.	.
!!LO:PB:g=original
=27	=27	=27	=27	=27
4FF:/ 4C: 4A:	.	16cc/LL	.	.
.	.	16a/	.	.
.	.	16f/	.	.
.	.	16c/	.	.
*	*	*	*below	*
8r	.	16ee-X/	5	.
.	.	16dd/JJ	4	.
4FF#X:/ 4D: 4A:	.	16dd/LL	4	.
.	.	16cc/	3	.
.	.	16a/	2	.
.	.	16d/	1	.
8r	.	16aa/	5	.
.	.	16cc/JJ	1	.
=28	=28	=28	=28	=28
4GG:\ 4D: 4B-:	.	16cc/LL	4	.
.	.	16b-/	.	.
.	.	16g/	.	.
.	.	16d/	.	.
8r	.	16ee-X/	.	.
.	.	16dd/JJ	.	.
4FF#X:/ 4C: 4A:	.	16dd/LL	4	.
.	.	16cc/	.	.
.	.	16a/	.	.
.	.	16d/	.	.
8r	.	16ee-X/	.	.
.	.	16dd/JJ	.	.
=29	=29	=29	=29	=29
4GG:\ 4D: 4B-:	.	16dd/LL	5	.
.	.	16b-/	.	.
.	.	16g/	.	.
.	.	16d/	.	.
8r	.	16ee-X/	5	.
.	.	16dd/JJ	-	.
!LO:SIC:s=4GG#X\ 4E 4Bn:	!	!	!	!
4GG#X\ 4E 4Bn	.	16dd/LL	5	.
.	.	16bn/	.	.
.	.	16f/	.	.
.	.	16en/	.	.
!	!	!LO:TX:b:t=cre_scen_do:problem:dynamics with line extensions:mod=	!	!LO:HP:b:t=cre-scen-do:ext=cd
8r	.	16bbn/	5	<
.	.	16dd/JJ	1	.
=30	=30	=30	=30	=30
4AA:\ 4E: 4c:	.	16dd/LL	4	.
.	.	16cc/	.	.
.	.	16a/	.	.
.	.	16e/	.	.
8r	.	16ccc/	5	.
.	.	16ee/JJ	1	.
4BBn:\ 4G: 4d:	.	16ee/LL	4	.
.	.	16dd/	.	.
.	.	16bn/	.	[
.	.	16f/	.	.
8r	.	16ddd/	.	.
.	.	16ff/JJ	.	.
=31	=31	=31	=31	=31
*	*	*8va	*	*
!LO:SIC:s=[2.C\ [2.G [2.e:	!	!	!	!
[2.C\ [2.G [2.e	.	16fff\LL	.	ff
.	.	16eee\	.	.
.	.	16ccc\	.	.
.	.	16gg\	.	.
.	.	16aaa\	.	.
.	.	16fff\JJ	.	.
.	.	16ggg\LL	.	.
.	.	16eee\	.	.
.	.	16ccc\	.	.
.	.	16gg\	.	.
.	.	16fff\	.	.
.	.	16ddd\JJ	.	.
*	*	*X8va	*	*
=32	=32	=32	=32	=32
!	!	!LO:TX:a:i:t=loco	!	!
2.C\] 2.G] 2.e]	.	16eee\LL	.	.
.	.	16ccc\	.	.
.	.	16gg\	.	.
.	.	16ee\	.	.
.	.	16aa\	.	.
.	.	16ff\JJ	.	.
.	.	16gg\LL	.	.
.	.	16ee\	.	.
.	.	16cc\	.	.
.	.	16g\	.	.
.	.	16ff\	.	.
.	.	16dd\JJ	.	.
!!LO:LB:g=original
=33	=33	=33	=33	=33
4.C\ 4.c	.	16ee/LL	.	.
.	.	16cc/	.	.
.	.	16g/	.	.
.	.	16e/	.	.
.	.	16ee/	.	.
.	.	16cc/JJ	.	.
4.BB-\ 4.B-	.	16ee/LL	.	.
.	.	16cc/	.	.
.	.	16g/	.	.
.	.	16e/	.	.
.	.	16ee/	.	.
.	.	16cc/JJ	.	.
=34	=34	=34	=34	=34
4.AA\ 4.A	.	16ff/LL	.	.
.	.	16cc/	.	.
.	.	16a/	.	.
.	.	16f/	.	.
.	.	16ff/	.	.
.	.	16cc/JJ	.	.
4.BBn\ 4.Bn	.	16ff/LL	.	sf
.	.	16dd/	.	.
.	.	16a-X/	.	.
.	.	16f/	.	.
.	.	16ff/	.	.
.	.	16dd/JJ	.	.
=35	=35	=35	=35	=35
4.C\ 4.c	.	16ff/LL	.	f
.	.	16cc/	.	.
.	.	16an/	.	.
.	.	16f/	.	.
.	.	16ff/	.	.
.	.	16cc/JJ	.	.
4r	.	16fff\LL	.	p
.	.	16ccc\	.	.
.	.	16aa\	.	.
.	.	16ff\	.	.
8r	.	16fff\	.	.
.	.	16ccc\JJ	.	.
=36	=36	=36	=36	=36
4.C\ 4.c	.	16ee\LL	.	f
.	.	16cc\	.	.
.	.	16b-\	.	.
.	.	16g\	.	.
.	.	16ee\	.	.
.	.	16cc\JJ	.	.
4r	.	16eee\LL	.	.
.	.	16ccc\	.	.
.	.	16bb-\	.	.
.	.	16gg\	.	p
8r	.	16eee\	.	.
.	.	16ccc\JJ	.	.
=37	=37	=37	=37	=37
*	*	*8va	*	*
[2.FF:/ [2.C: [2.A:	.	16cccc\LL	.	f
.	.	16aaa\	.	.
.	.	16fff\	.	.
.	.	16ccc\	.	.
.	.	16bbb-\	.	.
.	.	16ggg\JJ	.	.
.	.	16aaa\LL	.	.
.	.	16fff\	.	.
.	.	16ccc\	.	.
.	.	16aa\	.	.
.	.	16ddd\	.	.
.	.	16bb-\JJ	.	.
*	*	*X8va	*	*
=38	=38	=38	=38	=38
!	!	!LO:TX:a:i:t=loco	!	!
2.FF/] 2.C] 2.A]	.	16ccc\LL	.	.
.	.	16aa\	.	.
.	.	16ff\	.	.
.	.	16cc\	.	.
.	.	16bb-\	.	.
.	.	16gg\JJ	.	.
.	.	16aa\LL	.	.
.	.	16ff\	.	.
.	.	16cc\	.	.
.	.	16a\	.	.
.	.	16dd\	.	.
.	.	16b-\JJ	.	.
=39	=39	=39	=39	=39
4FF:/ 4C: 4A:	.	16cc/LL	.	.
.	.	16a/	.	.
.	.	16f/	.	.
.	.	16c/	.	.
8r	.	16dd/	.	.
.	.	16cc/JJ	.	.
!LO:SIC:s=4EE 4C 4G:	!	!	!	!
4EE/ 4C 4G	.	16cc/LL	.	.
.	.	16b-/	.	.
.	.	16g/	.	.
.	.	16c/	.	.
8r	.	16dd/	.	.
.	.	16cc/JJ	.	.
!!LO:LB:g=original
=40	=40	=40	=40	=40
4FF:/ 4C: 4A:	.	16cc/LL	.	.
.	.	16a/	.	.
.	.	16f/	.	.
.	.	16c/	.	.
8r	.	16dd/	.	.
.	.	16cc/JJ	.	.
!LO:SIC:s=4CC/ 4GG 4E:	!	!	!	!
4CC/ 4GG 4E	.	16cc/LL	.	.
.	.	16b-/	.	.
.	.	16g/	.	.
.	.	16e/	.	.
.	.	8qd/	.	.
8r	.	16c^/	.	.
.	.	16B-/JJ	.	.
=41	=41	=41	=41	=41
*	*	*8va	*	*
!LO:SIC:s=[2.FF/ [>2.C [2.A:	!	!	!	!
[2.FF/ [>2.C [2.A	.	16cccc\LL	.	.
.	.	16aaa\	.	.
.	.	16fff\	.	.
.	.	16ccc\	.	.
.	.	16bbb-\	.	.
.	.	16ggg\JJ	.	.
.	.	16aaa\LL	.	.
.	.	16fff\	.	.
.	.	16ccc\	.	.
.	.	16aa\	.	.
.	.	16ddd\	.	.
.	.	16bb-\JJ	.	.
*	*	*X8va	*	*
=42	=42	=42	=42	=42
!	!	!LO:TX:a:i:t=loco	!	!
2.FF/] 2.C] 2.A]	.	16ccc\LL	.	.
.	.	16aa\	.	.
.	.	16ff\	.	.
.	.	16cc\	.	.
.	.	16bb-\	.	.
.	.	16gg\JJ	.	.
.	.	16aa\LL	.	.
.	.	16ff\	.	.
.	.	16cc\	.	.
.	.	16a\	.	.
.	.	16dd\	.	.
.	.	16b-\JJ	.	.
=43	=43	=43	=43	=43
4FF:/ 4C: 4A:	.	16cc/LL	.	.
.	.	16a/	.	.
.	.	16f/	.	.
.	.	16c/	.	.
8r	.	16dd/	.	.
.	.	16cc/JJ	.	.
4EE:/ 4C: 4G:	.	16cc/LL	.	.
.	.	16b-/	.	.
.	.	16g/	.	.
.	.	16c/	.	.
8r	.	16dd/	.	.
.	.	16cc/JJ	.	.
=44	=44	=44	=44	=44
4FF:/ 4C: 4A:	.	16cc/LL	.	.
.	.	16a/	.	.
.	.	16f/	.	.
.	.	16c/	.	.
8r	.	16dd-X/	5	.
.	.	16cc/JJ	.	.
4CC:/ 4GG: 4E:	.	16b-/LL	4	.
.	.	16g/	2	.
.	.	16e/	1	.
.	.	16d-X/	4	.
8r	.	16c/	3	.
.	.	16B-/JJ	2	.
=45	=45	=45	=45	=45
!LO:SIC:s=2.FF/ 2.C 2.F:	!	!	!	!
2.FF/ 2.C 2.F	.	16A/LL	1	.
.	.	16c/	2	.
.	.	16f/	4	.
.	.	16a/	5	.
.	.	16e/	2	.
.	.	16f^>/JJ	3	.
.	.	16c/LL	.	.
.	.	16f/	.	.
.	.	16a/	.	.
.	.	16cc/	.	.
.	.	16g#X^/	.	.
.	.	16a/JJ	.	.
!!LO:LB:g=original
=46	=46	=46	=46	=46
!LO:SIC:s=[2.FF/ [>2.C [2.A:	!	!	!	!
[2.FF/ [>2.C [2.A	.	16f\LL	.	.
!	!	!LO:TX:b:i:t=poco a poco cre_scen_do:problem:dynamics with line extensions:mod=	!	!LO:HP:b:t=poco a poco cre-scen-do:ext=cd
.	.	16a\	.	.
.	.	16cc\	.	<
.	.	16ff\	.	.
.	.	16bn^\	.	.
.	.	16cc\JJ	.	.
.	.	16a\LL	.	.
.	.	16cc\	.	.
.	.	16ff\	.	.
.	.	16aa\	.	.
.	.	16ee\	.	.
.	.	16ff^\JJ	.	.
=47	=47	=47	=47	=47
2.FF/_ 2.C_> 2.A_	.	16cc\LL	.	.
.	.	16ff\	.	.
.	.	16aa\	.	.
.	.	16ccc\	.	.
.	.	16gg#X\	.	.
.	.	16aa^\JJ	.	.
.	.	16ff\LL	.	.
.	.	16aa\	.	.
.	.	16ccc\	.	.
.	.	16fff\	.	.
.	.	16bbn\	.	.
.	.	16ccc^\JJ	.	.
=48	=48	=48	=48	=48
*	*	*8va	*	*
2.FF/] 2.C] 2.A]	.	16aa\LL	.	.
.	.	16ccc\	.	.
.	.	16fff\	.	.
.	.	16aaa\	.	.
.	.	16eee\	.	.
.	.	16fff^\JJ	.	.
.	.	16ccc\LL	.	.
.	.	16fff\	.	.
.	.	16aaa\	.	.
.	.	16cccc\	.	.
.	.	16ggg#X\	.	[
.	.	16aaa^\JJ	.	.
=49	=49	=49	=49	=49
!LO:SIC:s=[2.FF/ [>2.C [2.A:	!	!	!	!
[2.FF/ [>2.C [2.A	.	16cccc\LL	.	f
.	.	16aaa\	.	.
.	.	16fff\	.	.
.	.	16ccc\	.	.
.	.	16bbb-\	.	.
.	.	16ggg\JJ	.	.
.	.	16aaa\LL	.	.
.	.	16fff\	.	.
.	.	16ccc\	.	.
.	.	16aa\	.	.
.	.	16ddd\	.	.
.	.	16bb-\JJ	.	.
*	*	*X8va	*	*
=50	=50	=50	=50	=50
!	!	!LO:TX:a:i:t=loco	!	!
2.FF/_ 2.C_> 2.A_	.	16ccc\LL	.	.
.	.	16aa\	.	.
.	.	16ff\	.	.
.	.	16cc\	.	.
.	.	16bb-\	.	.
.	.	16gg\JJ	.	.
.	.	16aa\LL	.	.
.	.	16ff\	.	.
.	.	16cc\	.	.
.	.	16a\	.	.
.	.	16dd\	.	.
.	.	16b-\JJ	.	.
=51	=51	=51	=51	=51
2FF/] 2C] 2A]	.	16cc/LL	.	.
.	.	16a/	.	.
.	.	16f/	.	.
.	.	16c/	.	.
.	.	16b-/	.	.
.	.	16g/JJ	.	.
.	.	16a/LL	.	.
.	.	16f/	.	.
4r	.	16c/	.	.
.	.	16A/	.	.
.	.	16d/	.	.
.	.	16B-/JJ	.	.
=52	=52	=52	=52	=52
!	!	!LO:TX:t=P:problem:mixed beam	!	!
4.ryy	.	16f\LL	.	.
.	.	16c\	.	.
.	.	16A\	.	.
.	.	16F</	.	.
.	.	16C</	.	.
.	.	16AA</JJ	.	.
8FF/L	.	4ryy	.	.
8FFF;</J	.	.	.	.
=:|!	=:|!	=:|!	=:|!	=:|!
*-	*-	*-	*-	*-
!!!RDF**kern: > = above
!!!RDF**kern: < = below
!!!system-decoration: {(s1,s2)}
!!!ENC: Solarz Mateusz
!!!END: 2022-07-15
!!!ENC: Urszula Świątek
!!!END: 2022-08-18
!!!ENC-modern: Andrzej Borzym
!!!END-modern: 2022-08-30
!!!YEC: Copyright 2022 Narodowy Instytut Fryderyka Chopina (https://polishscores.org)
!!!YEM: License CC-BY-4.0 (https://creativecommons.org/licenses/by/4.0)
